X: 1608
T: Anna Thug Mi Gradh Dhuit
R: reel
M: 4/4
K: Gmajor
G3D BDGA|BdAB GEEF|GDAD BDGA|BGdB A3B|
G3D BDGA|BdAB GEEF|GDAD BDGA|BGdB A2 dc||
BddB dGde|dBAG AEEA|BddB de=fe|e^fgf edef|
gfed efge|dBAB GEEF|GBDE BDDc|BGAF G2 GA||

